www/assets/icons/backup_table.svg

<svg xmlns="http://www.w3.org/2000/svg" width="24" height="24" viewBox="0 0 24 24" fill='currentColor'><path d="M20 6v14H6v2h14c1.1 0 2-.9 2-2V6z"/><path d="M16 2H4c-1.1 0-2 .9-2 2v12c0 1.1.9 2 2 2h12c1.1 0 2-.9 2-2V4c0-1.1-.9-2-2-2M9 16H4v-5h5zm7 0h-5v-5h5zm0-7H4V4h12z"/></svg>

<svg width="24" height="24" viewBox="0 0 24 24" xmlns="http://www.w3.org/2000/svg" fill='currentColor'><path d="M20 6V20H6V22H20C21.1 22 22 21.1 22 20V6H20Z"/><path d="M16 2H4C2.9 2 2 2.9 2 4V16C2 17.1 2.9 18 4 18H16C17.1 18 18 17.1 18 16V4C18 2.9 17.1 2 16 2ZM9 16H4V11H9V16ZM16 16H11V11H16V16ZM16 9H4V4H16V9Z"/></svg>
